build/category/ChairSolid.svg

<svg xmlns="http://www.w3.org/2000/svg" fill="none" viewBox="0 0 24 24" focusable="false"><path d="M0 0H24V24H0z"/><path fill="#74767B" fill-rule="evenodd" d="M7 6C7 4.34315 8.34315 3 10 3L14 3C15.6569 3 17 4.34315 17 6L17 11.9989C17.5872 12.244 18 12.8238 18 13.5C18 13.5597 18 13.6178 18 13.678L18 20.4529C18 20.8119 17.709 21.1029 17.35 21.1029C16.991 21.1029 16.7 20.8119 16.7 20.4529L16.7 15.0932C16.5947 15.1146 16.4857 15.1259 16.3741 15.1259L7.6259 15.1259C7.51428 15.1259 7.40529 15.1146 7.3 15.0932L7.3 20.4521C7.3 20.811 7.00899 21.1021 6.65 21.1021C6.29102 21.1021 6 20.811 6 20.4521L6 13.678C6 13.6178 6 13.5597 6 13.5C6 12.8238 6.41273 12.2441 7 11.9989L7 6ZM8.3 11.8741L15.7 11.8741L15.7 9L8.3 9L8.3 11.8741Z"/></svg>

<svg xmlns="http://www.w3.org/2000/svg" fill="none" viewBox="0 0 24 24" focusable="false"><path fill="#74767B" fill-rule="evenodd" d="M7 6c0-1.66 1.34-3 3-3h4c1.65 0 3 1.34 3 3v5.99c.58.25 1 .83 1 1.51v6.95c0 .36-.3.65-.65.65-.36 0-.65-.29-.65-.65v-5.36q-.165.03-.33.03H7.62q-.165 0-.33-.03v5.36c0 .36-.29.65-.65.65-.35 0-.64-.29-.64-.65V13.5c0-.68.41-1.26 1-1.51zm1.29 5.87h7.41V9H8.29z"/></svg>
